X:2597
L:1/8
M:6/8
K:D
 F2 | D>A,F DA,F | D>DD D2 F | E>A,F E>A,F | E>EE E2 F | D>FA dfa | G,>B,D GBd | A,>CE cec | 
 e2 z d2 || (A/B/c/d/) | e>^de f>dB | (B_B=B) A2 z | a2 a bab | c'/a/ a2 a2 .e | f>ga B>cd | 
 c>de ABc | B>dc BA^G | A>B=G F2 =F ||[K:Bmin] d/e/ | (f=f^f) edc | dBB B2 f | b2 b b^bb | 
 c'2 a f2 f | efa b2 d | e2 f g2 g | f>ed c>dB | A>BG F2 E2 z ||

